X: 22761
T: Landslide Village
R: hornpipe
M: 4/4
K: Ddorian
d>A|:c>AG>A F>DD>D|C>DD>D F>DD>D|C>DG>A F>DD>D|C>DB,>G, A,2 d>A|
c>AG>A F>DD>D|C>DD>D F>DD>D|C>DF>G B>dc>A|1 G>ED>C D2 d>A:|2 G>ED>C D2 A>B||
|:c>de>d c>AG>E|F>DC>D F>DD2|D2 D>E F2 F>G|A2 A>B c>df>g|
a>fd>f g>ec>e|d>ef>e d>cA>c|d2 d>e d>cA>G|1 F>DD>C D2 A>B:|2 F>DD>C D2 d>A||

